docs/assets/images/visa.svg

<svg width="14" height="10" viewBox="0 0 14 10" fill="none" xmlns="http://www.w3.org/2000/svg">
<rect width="14" height="10" rx="1" fill="#F0F5F9"/>
<path d="M6.35552 6.45H5.56464L6.05893 3.55179H6.84988L6.35552 6.45ZM4.89931 3.55179L4.14533 5.5452L4.05611 5.11594L4.05619 5.1161L3.79008 3.81274C3.79008 3.81274 3.7579 3.55179 3.41491 3.55179H2.16843L2.15381 3.60086C2.15381 3.60086 2.53498 3.67653 2.98108 3.93213L3.66819 6.45008H4.49222L5.75048 3.55179H4.89931ZM11.1199 6.45H11.8461L11.213 3.55171H10.5772C10.2836 3.55171 10.2121 3.7677 10.2121 3.7677L9.0326 6.45H9.85703L10.0219 6.0195H11.0273L11.1199 6.45ZM10.2497 5.4248L10.6652 4.34022L10.899 5.4248H10.2497ZM9.09444 4.24874L9.2073 3.62637C9.2073 3.62637 8.85904 3.5 8.49598 3.5C8.10351 3.5 7.1715 3.66366 7.1715 4.45946C7.1715 5.2082 8.26537 5.2175 8.26537 5.61079C8.26537 6.00407 7.2842 5.9336 6.96039 5.6856L6.84281 6.33635C6.84281 6.33635 7.19595 6.5 7.7355 6.5C8.27521 6.5 9.0894 6.23339 9.0894 5.50775C9.0894 4.75421 7.98569 4.68405 7.98569 4.35642C7.98577 4.02872 8.756 4.07082 9.09444 4.24874Z" fill="#2566AF"/>
<path d="M4.05619 5.11601L3.79008 3.81265C3.79008 3.81265 3.7579 3.5517 3.41491 3.5517H2.16843L2.15381 3.60077C2.15381 3.60077 2.75291 3.71923 3.32756 4.16306C3.87702 4.58728 4.05619 5.11601 4.05619 5.11601Z" fill="#E6A540"/>
</svg>

<svg xmlns="http://www.w3.org/2000/svg" fill="none" viewBox="0 0 14 10"><rect width="14" height="10" fill="#F0F5F9" rx="1"/><path fill="#2566AF" d="M6.356 6.45h-.791l.494-2.898h.79L6.357 6.45zM4.899 3.552l-.754 1.993-.089-.43v.001L3.79 3.813s-.032-.261-.375-.261H2.168l-.014.049s.381.076.827.331l.687 2.518h.824L5.75 3.552H4.9zm6.22 2.898h.727l-.633-2.898h-.636c-.293 0-.365.216-.365.216L9.032 6.45h.825l.165-.43h1.005l.093.43zm-.87-1.025.416-1.085.234 1.085h-.65zM9.095 4.249l.113-.623S8.86 3.5 8.496 3.5c-.392 0-1.325.164-1.325.96 0 .748 1.094.758 1.094 1.15 0 .394-.98.324-1.305.076l-.117.65s.353.164.893.164 1.353-.267 1.353-.992c0-.754-1.103-.824-1.103-1.152 0-.327.77-.285 1.108-.107z"/><path fill="#E6A540" d="M4.056 5.116 3.79 3.813s-.032-.261-.375-.261H2.168l-.014.049s.599.118 1.174.562c.549.424.728.953.728.953z"/></svg>
